assets/images/svg/theme-line.svg

<svg width="172" height="5" viewBox="0 0 172 5" fill="none" xmlns="http://www.w3.org/2000/svg">
<path d="M0.491044 2.26563C0.491044 3.41182 1.42022 4.34099 2.56641 4.34099C3.7126 4.34099 4.64177 3.41182 4.64177 2.26562C4.64177 1.11943 3.7126 0.190263 2.56641 0.190263C1.42022 0.190263 0.491044 1.11943 0.491044 2.26563ZM167.817 2.26561C167.817 3.4118 168.746 4.34097 169.892 4.34097C171.039 4.34097 171.968 3.4118 171.968 2.26561C171.968 1.11942 171.039 0.190248 169.892 0.190248C168.746 0.190248 167.817 1.11942 167.817 2.26561ZM2.56641 2.65476L3.72839 2.65476L3.72839 1.87649L2.56641 1.87649L2.56641 2.65476ZM6.05237 2.65476L8.37634 2.65475L8.37634 1.87649L6.05237 1.87649L6.05237 2.65476ZM10.7003 2.65475L13.0243 2.65475L13.0243 1.87649L10.7003 1.87649L10.7003 2.65475ZM15.3483 2.65475L17.6722 2.65475L17.6722 1.87649L15.3483 1.87649L15.3483 2.65475ZM19.9962 2.65475L22.3202 2.65475L22.3202 1.87649L19.9962 1.87649L19.9962 2.65475ZM24.6442 2.65475L26.9681 2.65475L26.9681 1.87649L24.6442 1.87649L24.6442 2.65475ZM29.2921 2.65475L31.6161 2.65475L31.6161 1.87649L29.2921 1.87649L29.2921 2.65475ZM33.9401 2.65475L36.264 2.65475L36.264 1.87649L33.9401 1.87649L33.9401 2.65475ZM38.588 2.65475L40.912 2.65475L40.912 1.87649L38.588 1.87649L38.588 2.65475ZM43.236 2.65475L45.5599 2.65475L45.5599 1.87649L43.236 1.87649L43.236 2.65475ZM47.8839 2.65475L50.2079 2.65475L50.2079 1.87649L47.8839 1.87649L47.8839 2.65475ZM52.5318 2.65475L54.8558 2.65475L54.8558 1.87649L52.5318 1.87649L52.5318 2.65475ZM57.1798 2.65475L59.5038 2.65475L59.5038 1.87649L57.1798 1.87649L57.1798 2.65475ZM61.8277 2.65475L64.1517 2.65475L64.1517 1.87649L61.8277 1.87649L61.8277 2.65475ZM66.4757 2.65475L68.7997 2.65475L68.7997 1.87649L66.4757 1.87649L66.4757 2.65475ZM71.1236 2.65475L73.4476 2.65475L73.4476 1.87649L71.1236 1.87649L71.1236 2.65475ZM75.7716 2.65475L78.0956 2.65475L78.0956 1.87649L75.7716 1.87649L75.7716 2.65475ZM80.4195 2.65475L82.7435 2.65475L82.7435 1.87649L80.4195 1.87649L80.4195 2.65475ZM85.0675 2.65475L87.3915 2.65475L87.3915 1.87649L85.0675 1.87649L85.0675 2.65475ZM89.7154 2.65475L92.0394 2.65475L92.0394 1.87649L89.7154 1.87649L89.7154 2.65475ZM94.3634 2.65475L96.6874 2.65475L96.6874 1.87649L94.3634 1.87649L94.3634 2.65475ZM99.0113 2.65475L101.335 2.65475L101.335 1.87649L99.0113 1.87649L99.0113 2.65475ZM103.659 2.65475L105.983 2.65475L105.983 1.87649L103.659 1.87649L103.659 2.65475ZM108.307 2.65475L110.631 2.65475L110.631 1.87649L108.307 1.87649L108.307 2.65475ZM112.955 2.65475L115.279 2.65475L115.279 1.87648L112.955 1.87648L112.955 2.65475ZM117.603 2.65475L119.927 2.65475L119.927 1.87648L117.603 1.87648L117.603 2.65475ZM122.251 2.65474L124.575 2.65474L124.575 1.87648L122.251 1.87648L122.251 2.65474ZM126.899 2.65474L129.223 2.65474L129.223 1.87648L126.899 1.87648L126.899 2.65474ZM131.547 2.65474L133.871 2.65474L133.871 1.87648L131.547 1.87648L131.547 2.65474ZM136.195 2.65474L138.519 2.65474L138.519 1.87648L136.195 1.87648L136.195 2.65474ZM140.843 2.65474L143.167 2.65474L143.167 1.87648L140.843 1.87648L140.843 2.65474ZM145.491 2.65474L147.815 2.65474L147.815 1.87648L145.491 1.87648L145.491 2.65474ZM150.139 2.65474L152.463 2.65474L152.463 1.87648L150.139 1.87648L150.139 2.65474ZM154.787 2.65474L157.111 2.65474L157.111 1.87648L154.787 1.87648L154.787 2.65474ZM159.435 2.65474L161.759 2.65474L161.759 1.87648L159.435 1.87648L159.435 2.65474ZM164.083 2.65474L166.407 2.65474L166.407 1.87648L164.083 1.87648L164.083 2.65474ZM168.731 2.65474L169.892 2.65474L169.892 1.87648L168.731 1.87648L168.731 2.65474Z" fill="#5465FF"/>
</svg>

<svg xmlns="http://www.w3.org/2000/svg" width="172" height="5" fill="none" viewBox="0 0 172 5"><path fill="#5465ff" d="M.491 2.266a2.075 2.075 0 1 0 4.15 0 2.075 2.075 0 0 0-4.15 0m167.326 0a2.075 2.075 0 1 0 4.15 0 2.075 2.075 0 0 0-4.15 0m-165.25.389h1.161v-.779H2.566zm3.485 0h2.324v-.779H6.052zm4.648 0h2.324v-.779H10.7zm4.648 0h2.324v-.779h-2.324zm4.648 0h2.324v-.779h-2.324zm4.648 0h2.324v-.779h-2.324zm4.648 0h2.324v-.779h-2.324zm4.648 0h2.324v-.779H33.94zm4.648 0h2.324v-.779h-2.324zm4.648 0h2.324v-.779h-2.324zm4.648 0h2.324v-.779h-2.324zm4.648 0h2.324v-.779h-2.324zm4.648 0h2.324v-.779H57.18zm4.648 0h2.324v-.779h-2.324zm4.648 0H68.8v-.779h-2.324zm4.648 0h2.324v-.779h-2.324zm4.648 0h2.324v-.779h-2.324zm4.647 0h2.325v-.779h-2.325zm4.648 0h2.325v-.779h-2.325zm4.648 0h2.324v-.779h-2.324zm4.648 0h2.324v-.779h-2.324zm4.648 0h2.324v-.779h-2.324zm4.648 0h2.324v-.779h-2.324zm4.648 0h2.324v-.779h-2.324zm4.648 0h2.324v-.779h-2.324zm4.648 0h2.324v-.779h-2.324zm4.648 0h2.324v-.779h-2.324zm4.648 0h2.324v-.779h-2.324zm4.648 0h2.324v-.779h-2.324zm4.648 0h2.324v-.779h-2.324zm4.648 0h2.324v-.779h-2.324zm4.648 0h2.324v-.779h-2.324zm4.648 0h2.324v-.779h-2.324zm4.648 0h2.324v-.779h-2.324zm4.648 0h2.324v-.779h-2.324zm4.648 0h2.324v-.779h-2.324zm4.648 0h1.161v-.779h-1.161z"/></svg>
